public/icons/Home-btn.svg

<svg width="69" height="67" viewBox="0 0 69 67" fill="none" xmlns="http://www.w3.org/2000/svg">
<g filter="url(#filter0_i_69_2)">
<rect y="0.5" width="68.707" height="65.731" rx="23.7633" fill="#EEE7E1" fill-opacity="0.6"/>
</g>
<path d="M47.2574 33.1718L41.7721 28.0274C41.7721 28.0189 41.7743 28.0084 41.7743 28V23.3292C41.7743 22.9292 41.4431 22.6051 41.0346 22.6051C40.626 22.6051 40.2949 22.9292 40.2949 23.3292V26.6423L35.044 21.7147C34.7387 21.4284 34.2592 21.4284 33.956 21.7147L21.7426 33.1718C21.4287 33.4665 21.4179 33.9527 21.719 34.26C22.02 34.5674 22.5167 34.5779 22.8306 34.2832L34.5 23.3376L46.1694 34.2853C46.322 34.4284 46.5177 34.5 46.7134 34.5C46.9198 34.5 47.1262 34.42 47.281 34.2621C47.5821 33.9548 47.5713 33.4665 47.2574 33.1718Z" fill="#2C2F30"/>
<path d="M45.9709 34.053C45.3527 34.053 44.8508 34.5463 44.8508 35.1539V47.6765H38.4818V44.4398C38.4818 43.8322 37.9798 43.3389 37.3616 43.3389H31.3415C30.7233 43.3389 30.2214 43.8322 30.2214 44.4398V47.6735H23.8524V35.1539C23.8524 34.5463 23.3504 34.053 22.7322 34.053C22.114 34.053 21.6121 34.5463 21.6121 35.1539V48.7775C21.6121 49.3851 22.114 49.8784 22.7322 49.8784H31.3415C31.9598 49.8784 32.4617 49.3851 32.4617 48.7775V45.5408H36.2415V48.7745C36.2415 49.3821 36.7434 49.8754 37.3616 49.8754H45.9709C46.5892 49.8754 47.0911 49.3821 47.0911 48.7745V35.1539C47.0911 34.5463 46.5892 34.053 45.9709 34.053Z" fill="#2C2F30"/>
<defs>
<filter id="filter0_i_69_2" x="0" y="0.5" width="68.707" height="68.3" filterUnits="userSpaceOnUse" color-interpolation-filters="sRGB">
<feFlood flood-opacity="0" result="BackgroundImageFix"/>
<feBlend mode="normal" in="SourceGraphic" in2="BackgroundImageFix" result="shape"/>
<feColorMatrix in="SourceAlpha" type="matrix" values="0 0 0 0 0 0 0 0 0 0 0 0 0 0 0 0 0 0 127 0" result="hardAlpha"/>
<feOffset dy="2.56901"/>
<feGaussianBlur stdDeviation="4.17464"/>
<feComposite in2="hardAlpha" operator="arithmetic" k2="-1" k3="1"/>
<feColorMatrix type="matrix" values="0 0 0 0 0 0 0 0 0 0 0 0 0 0 0 0 0 0 0.25 0"/>
<feBlend mode="normal" in2="shape" result="effect1_innerShadow_69_2"/>
</filter>
</defs>
</svg>

<svg xmlns="http://www.w3.org/2000/svg" width="69" height="67" fill="none" viewBox="0 0 69 67"><g filter="url(#a)"><rect width="68.707" height="65.731" y=".5" fill="#eee7e1" fill-opacity=".6" rx="23.763"/></g><path fill="#2c2f30" d="m47.257 33.172-5.485-5.145.002-.027v-4.67c0-.4-.33-.725-.74-.725a.73.73 0 0 0-.74.724v3.313l-5.25-4.927a.796.796 0 0 0-1.088 0L21.743 33.172a.757.757 0 0 0-.024 1.088.797.797 0 0 0 1.112.023L34.5 23.338l11.67 10.947a.793.793 0 0 0 1.111-.023.76.76 0 0 0-.024-1.09"/><path fill="#2c2f30" d="M45.97 34.053c-.617 0-1.12.493-1.12 1.1v12.523h-6.368V44.44c0-.608-.502-1.101-1.12-1.101h-6.02c-.619 0-1.12.493-1.12 1.1v3.234h-6.37v-12.52c0-.607-.502-1.1-1.12-1.1s-1.12.493-1.12 1.1v13.625c0 .607.502 1.1 1.12 1.1h8.61c.618 0 1.12-.493 1.12-1.1V45.54h3.78v3.234c0 .607.501 1.1 1.12 1.1h8.609c.618 0 1.12-.493 1.12-1.1V35.154c0-.608-.502-1.101-1.12-1.101"/><defs><filter id="a" width="68.707" height="68.3" x="0" y=".5" color-interpolation-filters="sRGB" filterUnits="userSpaceOnUse"><feFlood flood-opacity="0" result="BackgroundImageFix"/><feBlend in="SourceGraphic" in2="BackgroundImageFix" result="shape"/><feColorMatrix in="SourceAlpha" result="hardAlpha" values="0 0 0 0 0 0 0 0 0 0 0 0 0 0 0 0 0 0 127 0"/><feOffset dy="2.569"/><feGaussianBlur stdDeviation="4.175"/><feComposite in2="hardAlpha" k2="-1" k3="1" operator="arithmetic"/><feColorMatrix values="0 0 0 0 0 0 0 0 0 0 0 0 0 0 0 0 0 0 0.25 0"/><feBlend in2="shape" result="effect1_innerShadow_69_2"/></filter></defs></svg>
